X:1
T:Bach: Cello Suite 1 in G Major, BWV 1007: I. Prélude
T:Bach: Cello Suite 1 in G Major, BWV 1007: I. Prélude
T:Johann Sebastian Bach
T:Johann Sebastian Bach
Z:Johann Sebastian Bach
L:1/8
Q:1/4=150
M:4/4
K:G
V:1 bass nm="Violoncello" snm="Vc."
V:1
 G,,D,B,A, B,D,B,D, | G,,D,B,A, B,D,B,D, | G,,E,CB, CE,CE, | G,,E,CB, CE,CE, | G,,F,CB, CF,CF, | %5
 G,,G,B,A, B,G,B,G, | G,,G,B,A, B,G,B,G, | G,,E,B,A, B,G,F,G, | E,G,F,G, B,,D,^C,B,, | %9
 ^C,G,A,G, A,G,A,G, | D,G,A,G, A,G,A,G, | F,A,D^C DA,G,A, | F,A,G,A, D,F,E,D, | %13
 E,,B,,G,F, G,B,,G,B,, | E,,B,,G,F, G,B,,G,B,, | E,,^C,D,E, D,C,B,,A,, | G,F,E,D ^CB,A,G, | %17
 F,E,D,D A,DF,A, | D,E,F,A, G,F,E,D, | ^G,D,=F,E, F,D,G,D, | B,D,=F,E, F,D,F,D, | %21
 D,E,A,B, CA,E,D, | C,E,A,B, CA,F,E, | ^D,F,D,F, A,F,A,F, | ^D,F,D,F, A,F,A,F, | %25
 G,F,E,G, F,G,A,F, | G,F,E,D, C,B,,A,,G,, | F,,C,D,C, D,C,D,C, | F,,C,D,C, D,C,D,C, | %29
 G,,B,,=F,E, F,B,,F,B,, | G,,B,,=F,E, F,B,,F,B,, | G,,C,E,D, E,C,E,C, | G,,C,E,D, E,C,E,C, | %33
 G,,D,CB, CF,CF, | G,,F,CB, CF,CF, | G,,D,B,A, B,G,F,E, | D,C,B,,A,, G,,F,,E,,D,, | %37
 ^C,,A,,E,F, G,E,F,G, | C,,A,,E,F, G,E,F,G, | C,,A,,D,E, F,D,E,F, | C,,A,,D,E, F,D,E,F, | %41
 C,,A,,D,F, A,^C D2- | D4 z4 | z A,,B,,C, D,E,F,G, | A,F,D,E, F,G,A,B, | CA,F,G, A,B,CD | %46
 _ED^CD D=CB,C | CA,F,E, D,A,,B,,C, | D,,A,,D,F, A,B,CA, | B,G,D,C, B,,G,,A,,B,, | %50
 D,,G,,B,,D, G,A,B,G, | _D_B,A,B, B,A,^G,A, | A,G,F,G, G,F,^C,B,, | A,,^C,E,G, A,^CDC | %54
 DA,F,E, F,A,D,F, | A,,D,^C,B,, A,,G,,F,,E,, | D,,2 CA, G,F,E,D, | CB,A,G, F,E,D,C, | %58
 B,A,G,F, E,D,C,B,, | A,G,E,D, C,B,,A,,G, | F,E,F,A, D,A,E,A, | E,A,F,A, G,A,E,A, | %62
 F,A,D,A, G,A,E,A, | F,A,D,A, G,A,E,A, | F,A,D,A, G,A,E,A, | F,A,D,A, G,A,E,A, | A,A,B,A, CA,D,A, | %67
 B,A,CA, DA,B,A, | CA,B,A, CA,A,A, | B,A,A,A, B,A,G,A, | A,A,F,A, G,A,G,A, | G,A,E,A, F,A,D,E, | %72
 =F,D,^F,D, G,D,^G,D, | A,D,_B,D, =B,D,CD, | ^CD,DD, _ED,=ED, | =FD,^FD, GB,D,B, | GB,GB, GB,D,B, | %77
 GB,GB, GB,D,B, | GA,GA, GA,D,A, | GA,GA,[Q:1/4=110] GCD,C | FCD,C FCFC | %81
 FCD,[Q:1/4=70]C FC[Q:1/4=100]FC | [G,,B,G]8 | z8 |] %84

